X: 381
T:Fors seulement III
N: Derived from Jos2840-Fors_seulement_III.krn
C: Josquin des Prez
%%abc-version 2.0
%%abcx-abcm2ps-target-version 5.9.1 (29 Sep 2008)
%%abc-creator hum2abc beta
%%abcx-conversion-date 2019/02/12 16:15:55
%%abc-edited-by Jesse Rodin
%%abc-edited-by Will Watson 23/10/2011
%%abcx-initial-encoding-date 2011/10/23/
%%humdrum-veritas 3689953951
%%humdrum-veritas-data 2302121908
%%linebreak <none>
%%barnumbers 0
L: 1/4
M: 2/1
Q: 1/2=120
%%staves [1 2 3 4]
V: 1 clef=treble
V: 2 clef=treble-8
V: 3 clef=treble-8
V: 4 clef=bass
K: C
[V:1] z8 | 
[V:2] e8 | 
[V:3] A4A4 | 
[V:4] z8 | 
[V:1] z8 | 
[V:2] e4e4 | 
[V:3] A4c4 | 
[V:4] z8 | 
[V:1] z8 | 
[V:2] g8 | 
[V:3] z4c4 | 
[V:4] z8 | 
[V:1] z8 | 
[V:2] z4g4 | 
[V:3] e4e4 | 
[V:4] z8 | 
[V:1] z8 | 
[V:2] b4b4 | 
[V:3] d2B2d4- | 
[V:4] z8 | 
[V:1] z8 | 
[V:2] a6gf | 
[V:3] d2cBA4- | 
[V:4] z8 | 
[V:1] z8 | 
[V:2] e8 | 
[V:3] A2GFG2A2 | 
[V:4] z8 | 
[V:1] z8 | 
[V:2] d4c4 | 
[V:3] D4A4- | 
[V:4] z8 | 
[V:1] z8 | 
[V:2] B8 | 
[V:3] A2^G^F^G2A^G | 
[V:4] z8 | 
[V:1] E8 | 
[V:2] A6GF | 
[V:3] A4c4- | 
[V:4] A,,8 | 
[V:1] E4E4 | 
[V:2] E8- | 
[V:3] c2BAA2c2- | 
[V:4] A,,4A,,4 | 
[V:1] E6DC | 
[V:2] E8 | 
[V:3] c2BAG4 | 
[V:4] C,6D,2 | 
[V:1] B,4B,4 | 
[V:2] z8 | 
[V:3] z4G4 | 
[V:4] E,8 | 
[V:1] C4B,2C2- | 
[V:2] z8 | 
[V:3] A4G4 | 
[V:4] z4E,4 | 
[V:1] C2B,A,D3C | 
[V:2] z8 | 
[V:3] A6G2 | 
[V:4] F,6E,2 | 
[V:1] B,2A,2A,4- | 
[V:2] z8 | 
[V:3] F4E4 | 
[V:4] D,4C,4 | 
[V:1] A,2^G,^F,G,2F,G, | 
[V:2] z8 | 
[V:3] D6ED | 
[V:4] B,,3A,,B,,4 | 
[V:1] A,8 | 
[V:2] A8- | 
[V:3] E4A4 | 
[V:4] A,,8- | 
[V:1] z4A,4 | 
[V:2] A4F4 | 
[V:3] c4c3d | 
[V:4] A,,8 | 
[V:1] C6D2 | 
[V:2] E8 | 
[V:3] e8 | 
[V:4] z4A,,4 | 
[V:1] E8 | 
[V:2] z8 | 
[V:3] z4E4- | 
[V:4] C,4C,3D, | 
[V:1] E4E4 | 
[V:2] z4E4 | 
[V:3] E2F2G4 | 
[V:4] E,8 | 
[V:1] C4B,4 | 
[V:2] F4G4 | 
[V:3] A4E4 | 
[V:4] z4B,4 | 
[V:1] A,4C4- | 
[V:2] A8 | 
[V:3] z4e4- | 
[V:4] C6B,2 | 
[V:1] C2A,2B,2D2- | 
[V:2] z8 | 
[V:3] e2f2g4 | 
[V:4] A,4G,4 | 
[V:1] D2C2A,3B, | 
[V:2] d8 | 
[V:3] a4a4 | 
[V:4] F,3E,F,4 | 
[V:1] C2B,2C2B,2 | 
[V:2] e8 | 
[V:3] g4z2g2- | 
[V:4] E,8- | 
[V:1] E8 | 
[V:2] g3ab2c'2- | 
[V:3] gfe3dcB | 
[V:4] E,8 | 
[V:1] E4E4 | 
[V:2] c'ba2^g3^f | 
[V:3] A2c2B4 | 
[V:4] z4E,4 | 
[V:1] C6B,A, | 
[V:2] a4e4- | 
[V:3] z2A2c2d2 | 
[V:4] A,6A,2 | 
[V:1] C4z2G,2 | 
[V:2] e2dcB4 | 
[V:3] e2f2g4 | 
[V:4] A,4G,4 | 
[V:1] A,2C3B,B,A, | 
[V:2] A6GF | 
[V:3] c4d4 | 
[V:4] F,3E,D,4 | 
[V:1] C8- | 
[V:2] E4E4 | 
[V:3] G4g4- | 
[V:4] C,8- | 
[V:1] C4G,4 | 
[V:2] e4g4 | 
[V:3] g2fee4- | 
[V:4] C,8 | 
[V:1] A,6B,2 | 
[V:2] f8 | 
[V:3] e2dcd4 | 
[V:4] z4D,4 | 
[V:1] C6B,A, | 
[V:2] e8 | 
[V:3] e2A2c3d | 
[V:4] A,6A,2 | 
[V:1] C2B,2C3B, | 
[V:2] z4e4 | 
[V:3] efg2e2g2- | 
[V:4] A,2G,2A,2E,2- | 
[V:1] G,2A,3^G,G,2 | 
[V:2] B8 | 
[V:3] g2fed4 | 
[V:4] E,2D,C,B,,A,,B,,2 | 
[V:1] A,4z2c2 | 
[V:2] c4A4- | 
[V:3] c2A2e4 | 
[V:4] A,,8 | 
[V:1] c2B2c2B2- | 
[V:2] A2E2A2G2 | 
[V:3] z2e2e2e2 | 
[V:4] z8 | 
[V:1] BAA3^GG^F | 
[V:2] A3BE4 | 
[V:3] c3dB4 | 
[V:4] z8 | 
[V:1] A8 | 
[V:2] e6f2 | 
[V:3] A3Bc2A2 | 
[V:4] z2A,,2A,3A, | 
[V:1] z8 | 
[V:2] g4a4 | 
[V:3] B2c2A4 | 
[V:4] G,2E,2F,4 | 
[V:1] z4B4 | 
[V:2] g6e2- | 
[V:3] B4z2G2 | 
[V:4] E,8 | 
[V:1] c4c4 | 
[V:2] e4c4 | 
[V:3] A3Bc2A2 | 
[V:4] z2A,,2A,3A, | 
[V:1] B2G2A4- | 
[V:2] e4d4 | 
[V:3] B2c2A3G | 
[V:4] G,2E,2F,4- | 
[V:1] A4G4 | 
[V:2] c8 | 
[V:3] ABc4G2 | 
[V:4] F,4E,4 | 
[V:1] z4A4 | 
[V:2] f8 | 
[V:3] d4d4 | 
[V:4] z4D,4 | 
[V:1] c4c4 | 
[V:2] e4c4 | 
[V:3] c4A4 | 
[V:4] A,6A,2 | 
[V:1] B2G2A4 | 
[V:2] z4d4 | 
[V:3] B2c2A3B | 
[V:4] G,2E,2F,4 | 
[V:1] G4E4 | 
[V:2] e8 | 
[V:3] cBc3BAG | 
[V:4] E,4A,,4 | 
[V:1] F8 | 
[V:2] d4B4 | 
[V:3] F4z2F2 | 
[V:4] D,6D,2 | 
[V:1] E8 | 
[V:2] c8- | 
[V:3] G2A2E4 | 
[V:4] C,2A,,2C,3D, | 
[V:1] E2C2D4 | 
[V:2] c4B4 | 
[V:3] z8 | 
[V:4] E,A,,A,3^G,G,^F, | 
[V:1] C6B,A, | 
[V:2] z4c4- | 
[V:3] A8 | 
[V:4] A,8 | 
[V:1] E8 | 
[V:2] c8- | 
[V:3] A4A4 | 
[V:4] A,,8 | 
[V:1] z4E4 | 
[V:2] c4A4 | 
[V:3] c6d2 | 
[V:4] A,,4A,,4 | 
[V:1] E4E4 | 
[V:2] E8 | 
[V:3] e2f2g4 | 
[V:4] C,6D,2 | 
[V:1] G8 | 
[V:2] z8 | 
[V:3] GABcB2c2- | 
[V:4] E,8 | 
[V:1] z4G4 | 
[V:2] E8 | 
[V:3] c2BAB4 | 
[V:4] z4E,4 | 
[V:1] A6G2 | 
[V:2] A8- | 
[V:3] z2A2c3c | 
[V:4] F,6E,2 | 
[V:1] F2E2D4 | 
[V:2] A8- | 
[V:3] d2e2f4 | 
[V:4] D,2C,2D,4 | 
[V:1] C2c4B2 | 
[V:2] A8 | 
[V:3] e2ABcde2- | 
[V:4] A,,8 | 
[V:1] A4G2G2- | 
[V:2] F4E4 | 
[V:3] e2d2e2c2 | 
[V:4] z8 | 
[V:1] G2FED4- | 
[V:2] G8 | 
[V:3] B4z4 | 
[V:4] E,4G,4- | 
[V:1] D2E2F2G2 | 
[V:2] B8 | 
[V:3] B4d4- | 
[V:4] G,2F,E,D,2E,2 | 
[V:1] A2B2c4- | 
[V:2] A8 | 
[V:3] d2cBA2B2 | 
[V:4] F,2G,2A,4- | 
[V:1] c2BAG4 | 
[V:2] e8 | 
[V:3] c2d2e2E2- | 
[V:4] A,4E,4 | 
[V:1] z4G4- | 
[V:2] B8 | 
[V:3] EFG2E2G2- | 
[V:4] z2E,2G,2E,2 | 
[V:1] G4G4 | 
[V:2] E8- | 
[V:3] GAB2E2B2- | 
[V:4] G,3A,B,2E,2 | 
[V:1] G4G4 | 
[V:2] E8- | 
[V:3] BGc2B2e2- | 
[V:4] z2C,2G,2C,2 | 
[V:1] G6FE | 
[V:2] E8- | 
[V:3] edc2B2c2 | 
[V:4] E,3F,G,2C,2 | 
[V:1] E2c2B2c2- | 
[V:2] E8- | 
[V:3] G2A2E2e2- | 
[V:4] z2A,,2E,2A,,2 | 
[V:1] c2BAG2c2 | 
[V:2] E8- | 
[V:3] edc2B2A2 | 
[V:4] C,3D,E,2A,,2 | 
[V:1] B2c2B2c2- | 
[V:2] E8- | 
[V:3] e2e2e2e2- | 
[V:4] z2A,,2E,2A,,2 | 
[V:1] cBA3^GG^F | 
[V:2] E8- | 
[V:3] edc2B4 | 
[V:4] C,3D,E,4 | 
[V:1] A8 |]  
[V:2] E8 |]  
[V:3] A8 |]  
[V:4] A,,8 |]  



